X:1
T:G Major – G minor Jacob French, 1797
T:Various scriptures, mostly Isaiah Chapter 1
T:Rebellion
T:Transcribed from Harmony of Harmony, 1802
T:An Anthem for Fast
%%score [ 1 2 3 4 ]
L:1/8
Q:1/4=120
M:2/2
K:G
V:1 treble nm="Treble" snm="Tr."
V:2 treble nm="Counter" snm="C."
V:3 treble-8 nm="Tenor" snm="T."
V:4 bass nm="Bass" snm="B."
V:1
!f! B4 A4 | B4 z4 | z8 | z8 |!p! B3 B B2 A2 | B4 B2 z2 |!<(! d3 d d2 d2!<)! | d4 d2 z2 | %8
!f! B3 B B2 A2 | A4 A2 z2 |!ff! d4 e4 | d6 c2 | B2 z2 z4 | z8 | z8 | z8 | z8 | z8 | %18
 z4"^I    have nourished and brought up    chil  –  dren, but they have rebelled against me."!mf! d2 d2 | %19
 g2 gf e2 g2 | (f2 d2) d2 d2 | e2 ee d2 d2 | d4 d4 || %23
[K:Bb]"^Ah,          sin  – ful     na  –  tion."!mp! (d3 c) B2 A2 | B4 B2 z2 | z8 | z8 | %27
!f! B4 e2 e2 | d8 ||[K:G] d4 z2"^The  ox knows his"!mp! D2 | G4 G2 B2 |"^ow – ner," (A2 F2) D2 z2 | %32
 z8 | z4 G4 |!<(! B2 B2 B2 B2!<)! | B8 | z4!mf! B4 | d2 d2 d2 d2 | d8 | z4 [Bd]4 | B2 B2 B2 B2 | %41
 A6 G2 | d4 d2 B2 | e4 d4 | d2 d4 z2 || %45
[K:Bb]"^Ah,          sin  – ful     na  –  tion."!mp! (d3 c) B2 A2 | B4 B2 z2 | z8 | z8 | %49
!f! B4 e2 e2 | d8 || d4 z2!mp! d2 | B2 A2 G4- | G2 A2 B2 cB | %54
 A3 A A2"^Seed  of   e  – vil  do    –    ers," A2 | B2 B2 B G3 | ^F6 z2 | z8 | z8 | ^F4 F2 F2 | %60
 (G2 B2) A2 G2 | A4 A4 | B4 B2 G2 | A6 Bc ||[M:3/2] (d3 c B2) (c2 d2) e2 | f3 f f4 f2 f2 | %66
 e6 d2 c4 | d3 d d4 z2 d2 ||[M:2/2] B4 B2 B2 | (B d3) f2 g2 | f4 d2 d2 | (c A3) z4 | z8 | %73
 z4 d2 c2 | B4 d2 d2 | d8 | d4 c4 ||[M:6/4] B6 B4 B2 | (B d3) B2 A2 c2 A2 | (G2 A2) B2 (c2 B2) A2 | %80
 G6- G6 ||[M:2/2] z4 [Ad]4 | [Bd]3 c d2 cB | A6 e2 | d4 d2 B2 | e2 e2 d4 | d4 d4 | d2 d2 d2 B2 | %88
 e e3 z2 d2 | d4 d2 c2 | B B3 z4 || %91
[M:6/8]"^Wash ye, make ye   clean,           clean,      clean," B2 A B2 c | (d3 c3) | B3 A3 || %94
[M:2/2] B6 BA ||[M:3/2] G2 B2 A2 B2 cd ec | d4 d4 d3 d | (c2 B2) A8 | B8 z4 | z12 | z12 | %101
"^Learn to  do    well," B6 A2 G4 | A8 z4 ||[M:2/2] z4 z2 d2 | d4 d2 B2 | ^c4 c2 d2 | %106
"^plead __________         for          the  widow." (e8 | d8) | d6 c2 | B4 B4 | z8 | %111
"^Vivace"[Q:1/4=150] B4 A2 A2 | B2 c2 dedc | B2 B2 BAGA | B2 [GB]2 A3 A | B4 z4 | z8 | z8 | z8 | %119
 z8 | z8 | z4"^Though your" g2 f2 | %122
"^sins        be           red       like        crimson,  they         shall be white as     snow." e2 d2 e>f g2 | %123
 f2 d2 B4 | e2 e2 d2 d2 | d8 ||[M:2/4][Q:1/4=60]"^Slow" z4 | z2 z"^and"!p! d | %128
"^hide thy–self  in     dust," ed cB | A3 F ||[M:2/2] G4 G2 G2 | G4!f!"^Quick"[Q:1/4=150] d2 c2 | %132
 B2 B2 A2 A2 | A3 A A4 |"^When    he    a  –  ri    –   ses  to" B4 B2 A2 | d4 d2 c2 | %136
"^shake   the         earth,    to          shake the    earth,   to            shake __________           ter – ri – bly the  earth," B2 B2 B2 Bc | %137
 d2 d2 d2 d2 | (e>fed e4) | e2 e2 d2 d2 | [Bd]8 | z8 | d3 c B2 A2 | B3 A G2 AB | c3 A GA B2 | %145
 e3 e dc B2 | A4 A2 z2 | (dcBA G4 | d4 c4) | B8 |] %150
V:2
"^Hear, O  heav'ns!" G4 F4 | G4 z4 | z8 | z8 |"^I,    the Lord have spoken."!p! D3 D D2 D2 | %5
 D4 D2 z2 |"^I,    the Lord have spoken.        I,    the Lord have"!<(! G3 G G2 F2!<)! | %7
 G4 G2 z2 |!f! G3 G G2 E2 |"^spoken.          I      have    spo   –  ken   it." F4 F2 z2 | %10
!ff! G4 G4 | F6 A2 | G2 z2 z4 | z8 | z8 | z8 | z4"^I  have"!mf! D2 D2 | %17
"^nourished and brought up  chil – dren, but  they have rebelled against    me,      they have re     –     beled  a   –  gainst  me." G2 GF E2 G2 | %18
 (F2 D2) D2 D2 | E2 EF G2 GG | F4 F2 G2 | (A2 G2) F2 F2 | G4 G4 ||[K:Bb] z8 | z8 | %25
"^Ah,          sin – ful     na  –  tion.      Ah,     sinful       na   –       –    tion."!mp! (F3 E) D2 C2 | %26
 D4 D2 z2 |!f! G4 G2 G2 | ^F8 ||[K:G] G4 z4 | z8 | z8 | z8 | %33
 z4"^But      Israel doth not know,        But   Israel doth not  know,         But   Israel doth not" D4 | %34
!<(! D2 D2 D2 D2!<)! | D8 | z4!mf! D4 | G2 G2 G2 G2 | G8 | z4 G4 | G2 G2 G2 G2 | %41
"^know,  My        peo  –  ple doth  not  con – si – der." F6 E2 | (D2 G2) F2 E2 | A4 G4 | %44
 F2 F4 z2 ||[K:Bb] z8 | z8 |"^Ah,          sin  – ful     na  –  tion."!p! (F3 E) D2 C2 | %48
 D4 D2 z2 | %49
"^Ah,    sinful      na    –    tion.            A     people   la       –       den with  in     –    i  – qui – ty."!f! G4 G2 G2 | %50
 ^F8 || G4 z2!mp! D2 | D2 D2 D4- | D2 D2 E2 C2 | D3 D D2 z2 | z8 | z8 | z8 | z8 | %59
"^They have for – sa    –    ken  the     Lord  their   God,    and  pro – voked         the" D4 D2 D2 | %60
 D4 F2 G2 | F4 F4 | F4 F2 E2 | (D2 C4) G2 || %64
[M:3/2]"^Holy            One       of      Is  – ra  – el     un – to     an  –  ger most   bit – ter –ly.          The      whole head is  sick,         and the" F6 (F2 G2) G2 | %65
 A3 A A4 B2 A2 | G6 G2 F4 | F3 F F4 z2 G2 ||[M:2/2] G4 G2 G2 | (G F3) F2 E2 | %70
"^whole heart is faint,                                                       ev – en   un – to  the head,   there is      no soundness, but wounds,bruises, and" D4 F2 F2 | %71
 (G D3) z4 | z8 | z4 [DG]2 F2 | G4 A2 A2 | B8 | B4 A4 ||[M:6/4] G6 G4 F2 | F4 F2 F2 F2 F2 | %79
"^pu   –   tri – fy    –     ing   sores. __                      Ex – cept    the    Lord  of      hosts     had      left    us    a      very small    remnant," D4 B,2 E4 D2 | %80
 D6- D6 ||[M:2/2] z4 D4 | D3 E/F/ G2 E2 | F6 G2 | G4 F2 E2 | A2 A2 G4 | F4 F4 | %87
"^we had been as   So–dom,         and   like    to  Go – mor –rah." G2 G2 F2 E2 | A G3 z2 F2 | %89
 G4 F2 F2 | G G3 z4 ||[M:6/8] z6 | z6 |"^Wash ye, make ye" D2 D D2 D || %94
[M:2/2]"^clean,  Put   a     –    way the  e – vil  of      your     do – ing  from be – fore    my         eyes." D6 DC || %95
[M:3/2] B,2 D2 E2 E2 F2 G2 | F4 F4 G3 F | E4 D8 | D8 z4 | z12 | z12 | z12 | %102
 z8"^Seek      judgment, re–lieve the  op  –  press – ed,   and  plead for the widow, plead for the  widow." G4 || %103
[M:2/2] F4 F2 F2 | G4 D2 GF | E4 EF G2 | G4 G2 G2 | G4 G4 | F4 F2 F2 | G4 G4 | z8 | %111
"^Come now and   let     us     rea – son  to  –  ge – ther,  rea  – son   to  –  ge – ther, saith  the   Lord:" z8 | %112
 z8 | z4 D2 EE | D2 D2 D3 D | D4 z4 | z8 | z8 | z8 | %119
 z4"^Though your  sins        be      red           like    crim – son,  they" G2 F2 | %120
 E2 D2 E>F G2 | F2 D2 D4 | %122
"^shall      be         white     as            snow,      as             white        as            snow." G2 G2 G2 G2 | %123
 A4 G4 | G4 F4 | G8 ||[M:2/4] z2"^En – ter     in  –  to  the   rock,"!p! GF | GF/E/ D z | z4 | %129
 z2 z"^For          fear  of  the  Lord, and the glo–ry   of   his    ma– jes –ty.                                    When  he   a –" D || %130
[M:2/2] E4 E2 E2 | E4!f! A2 A2 | G2 F2 E2 E2 | F3 F F4 | z8 | (G2 A2) G2 E2 | %136
"^–  ri       –        –     ses        to            shake __________________________________           ter – ri – bly the  earth," F4 F2 F2 | %137
 (G2 GA B>cBA | !wedge!B2 !wedge!B2 !wedge!B4) | A2 G2 F2 F2 | G8 | z8 | %142
"^Hal   –  le –  lu  – jah,      Hal   –    le – lu   –   jah,           Hal   –    le – lu    –   jah,       Hal     –    le –  lu    –  jah,      A   –    men." z8 | %143
 z8 | G3 F E2 D2 | E3 E F2 G2 | F4 F2 z2 | %147
"^A       –       –       –       –       –       –         men." (G2 F2 E4 | F8) | G8 |] %150
V:3
 d4 d4 | d4 z4 | z8 | z8 |!p! G3 G G2 F2 | G4 G2 z2 |!<(! B3 B B2 A2!<)! | B4 B2 z2 | %8
!f! d3 d d2 ^c2 | d4 d2 z2 |!ff! B4 c4 | A6 F2 | G2 z2 z4 | z8 | %14
 z4"^I have nourished and brought up children, but"!mf! d2 d2 | g2 gf e2 g2 | (f2 d2) d2 d2 | %17
"^they have rebelled a    –    gainst    me, but  they have rebelled against    me,       they have  re     –    belled  a  –  gainst  me." e2 ed c2 ce | %18
 d4 d2 B2 | c2 cd e2 ec | d4 d2 B2 | (c2 B2) A2 A2 | G4 G4 || %23
[K:Bb]"^Ah,          sin  – ful     na  –  tion."!mp! (B3 A) G2 ^F2 | G4 G2 z2 | (d3 c) B2 A2 | %26
 B4 B2 z2 |!f! d4 c2 B2 | A8 ||[K:G] G4 z4 | z8 | z4 z2"^And  the  ass his master's  crib,"!p! AB | %32
 c2 B2 A2 G2 | A2 z2 D4 |!<(! G2 G2 G2 G2!<)! | G8 | z4!mf! G4 | B2 B2 B2 B2 | B8 | z4 B4 | %40
 d2 d2 d2 d2 | d6 c2 | B4 A2 G2 | c4 B4 | A2 A4 z2 || %45
[K:Bb]"^Ah,          sin  – ful     na  –  tion."!mp! (B3 A) G2 ^F2 | G4 G2 z2 |!p! (d3 c) B2 A2 | %48
 B4 B2 z2 |!f! d4 c2 B2 | A8 || G4 z2!mp! D2 | G2 A2 B4- | B2 A2 G2 G2 | %54
 ^F3 F F2"^Seed   of   e  – vil    do   –   ers," F2 | G2 G2 G2 B2 | A6 z2 | %57
"^Chil–dren that are cor –rup–ters," B2 BB A2 G2 | d2 d2 z4 | A4 A2 A2 | B4 c2 c2 | d4 c4 | %62
 d4 d2 e2 | f6 e2 ||[M:3/2] d6 (c2 B2) B2 | c3 c c4 d2 d2 | c6 B2 A4 | B3 B B4 z2 G2 || %68
[M:2/2] d4 d2 d2 | (e d3) c2 B2 | A4 A2 A2 | (G ^F3) z4 | z8 | z4 B2 c2 | d4 f2 f2 | g8 | f4 f4 || %77
[M:6/4] d6 d4 d2 | (d B3) d2 c2 A2 c2 | (B2 A2) G2 (A2 G2) ^F2 | G6- G6 ||[M:2/2] z4 D4 | %82
 G3 A B2 c2 | d6 c2 | B4 A2 G2 | c2 c2 B4 | A4 A4 | B2 B2 A2 G2 | c c3 z2 A2 | B4 A2 A2 | %90
 G G3 z4 ||[M:6/8]"^Wash ye, make ye   clean,           clean,      clean," G2 D G2 A | (B3 A3) | %93
 G3 F3 ||[M:2/2] G6 Bc ||[M:3/2] d2 B2 c2 B2 A2 G2 | A4 A4 B3 A | G4 F8 | G8 z4 | %99
"^Cease  to  do      e –vil," G6 F2 E4 | F2 D2 z8 | z12 | z8 (B2 c2) ||[M:2/2] d4 d2 A2 | %104
 B4 A2 G2 | A4 A2 B2 |"^plead __________         for          the  widow." (c8 | B8) | A6 A2 | %109
 G4 G4 | z8 | G4 D2 D2 | G2 A2 BcBA | G2 G2 BcBA | G2 G2 F3 F | G4 z4 | z8 | %117
 z4"^Though your  sins  be      red       like     crim–son,  they             shall       be       white       as         snow,                     as" g2 f2 | %118
 e2 d2 e>f g2 | f2 d2 (e2 d2) | c2 B2 A2 G2 | d6 dc | %122
"^white     as         snow,     as          white as snow, as     white      as             snow." B2 B2 B2 Bc | %123
 d2 d2 d2 d2 | (c2 B2) A4 | G8 ||[M:2/4] z4 | z4 | z4 | z2 z B ||[M:2/2] B4 B2 B2 | B4!f! A2 A2 | %132
 d2 d2 ^c2 c2 | d3 d d4 |"^When    he    a  –  ri    –   ses  to" (G2 F2) G2 A2 | (B2 A2) B2 c2 | %136
"^shake _______________________________________________________________           ter – ri – bly the  earth.    Hal –le –lu –jah," (d>ed^c !wedge!f2 !wedge!f2 | %137
 !wedge!d2 ef g>agf | !wedge!g2 !wedge!g2 !wedge!g4) | c2 B2 A2 A2 | G8 | d3 c B2 A2 | B3 A G2 F2 | %143
 G3 A Bc d2 | e3 d c2 B2 | c2 B2 A2 G2 | d4 d2 z2 | (Bc d2 c4 | B4 A4) | G8 |] %150
V:4
 G,4 D,4 | G,4"^and give ear,  O     earth,"!mf! D,2 C,2 | B,,4 A,,4 | G,,8 | %4
!p! G,,3 G,, G,,2 D,2 | G,,4 G,,2 z2 |!<(! G,3 G, G,2 D,2!<)! | G,4 G,2 z2 |!f! G,3 G, G,2 A,2 | %9
 D,4 D,2 z2 |!ff! G,4 C,4 | D,6 D,2 | %12
 G,,2 z2"^I have nourished and brought up children,  but they have rebelled against    me,  but"!mf! D,2 D,2 | %13
 G,2 G,F, E,2 G,2 | (F,2 D,2) D,2 D,2 | E,2 E,D, C,2 C,2 | D,4 D,2 B,,2 | %17
"^they have rebelled      a   –   gainst   me, have re       –     belled,  re     –    belled,   re–belled,  re    –    belled a   –   gainst  me." C,2 C,C, E,2- E,C, | %18
 (D,2 B,,2) G,,2 G,,2 | C,4 C,2 E,2 | D,4 D,2 G,2 | C,4 D,2 D,2 | G,,4 G,,4 ||[K:Bb] z8 | z8 | z8 | %26
 z8 |!f! G,4 C,2 C,2 | D,8 ||[K:G] G,,4 z4 | z8 | z4 z2!p! F,G, | A,2 G,2 F,2 E,2 | %33
 D,2 z2 [G,,B,,]4 |!<(! G,,2 G,,2 G,,2 G,,2!<)! | G,,8 | z4!mf! [G,,G,]4 | G,2 G,2 G,2 G,2 | G,8 | %39
 z4 G,4 | G,2 G,2 G,2 G,2 | D,6 E,F, | G,4 D,2 E,2 | C,4 G,,4 | D,2 D,4 z2 ||[K:Bb] z8 | z8 | z8 | %48
 z8 |!f! G,4 C,2 C,2 | D,8 || G,,4 z2!mp! [G,,D,]2 | G,,2 D,2 G,4- | G,2 F,2 E,2 E,2 | %54
 D,3 D, D,2 z2 | z8 | z8 | G,2 G,G, F,2 E,2 | D,2 D,2 z4 | D,4 D,2 D,2 | G,4 F,2 E,2 | D,4 F,4 | %62
 B,,4 B,,2 C,2 | F,6 G,A, ||[M:3/2] B,6 (A,2 G,2) G,2 | F,3 F, F,4 [B,,D,]2 D,2 | E,6 E,2 F,4 | %67
 B,,3 B,, B,,4 z2 G,,2 ||[M:2/2] G,4 G,2 G,2 | (G, B,3) A,2 G,2 | D,4 D,2 D,2 | %71
 (E, D,3)"^From the sole   of the  foot," D,2 D,2 | G,,4 G,,2 G,,2 | G,,4 B,2 A,2 | G,4 D,2 D,2 | %75
 G,8 | B,4 F,4 ||[M:6/4] G,6 G,4 D,2 | B,,4 B,,2 F,2 F,2 F,2 | (G,2 D,2) E,2 C,4 D,2 | %80
 G,,6- G,,6 ||[M:2/2] z4 D,4 | B,,3 A,, G,,2 A,,2 | D,6 E,F, | G,4 D,2 E,2 | C,2 C,2 G,,4 | %86
 D,4 D,4 | G,2 G,2 D,2 E,2 | C, C,3 z2 D,2 | G,4 D,2 D,2 | G,, G,,3 z4 ||[M:6/8] z6 | z6 | %93
"^Wash ye, make ye" G,2 G, D,2 D, ||[M:2/2] G,,6 G,A, ||[M:3/2] B,2 G,2 A,2 G,2 F,2 E,2 | %96
 D,4 D,4 B,,3 B,, | C,4 D,8 | G,,8 z4 | z12 | z12 |"^Learn to  do    well," G,6 F,2 E,4 | D,8 z4 || %103
[M:2/2] z4 z2 D,2 | G,4 F,2 E,2 | A,,4 A,,2 G,,2 | C,8 | [G,,G,]8 | D,6 D,2 | G,,4 G,,4 | z8 | z8 | %112
 z8 | z4 G,F,E,F, | G,2 G,2 D,3 D, | G,,4"^Though your sins be red like" G,2 F,2 | %116
 E,2 D,2 E,F, G,2 | %117
"^crim–son,  they            shall  be     white     as      snow,    Though your    sins        be      red           like     crim – son,   they" F,2 D,2 (E,2 D,2) | %118
 C,2 B,,2 A,,2 G,,2 | D,4 C,2 D,2 | E,>F, G,2 [A,C]2 D2 | B,2 G,2 (G,2 D,2) | %122
"^shall     be         white    as           snow, as   white                        as              snow." E,>F, G,>F, E,2 =E,2 | %123
 D,2 D,2 (G,4 | C,4) D,4 | G,,8 ||[M:2/4] z2"^En – ter     in  –  to  the   rock, and"!p! G,D, | %127
 E,D,/C,/ B,,G,, |"^hide thy–self  in     dust," C,B,, A,,G,, | A,,3 B,, ||[M:2/2] E,4 E,2 E,2 | %131
 E,4!f! F,2 F,2 | G,2 G,2 A,2 A,2 | D,3 D, D,4 | (E,2 D,2) E,2 F,2 | (G,2 F,2) G,2 A,2 | %136
 (B,2 B,2 B,>CB,A, | !wedge!G,2 !wedge!G,2 G,>A,G,F, | %138
 !wedge!E,2 !wedge!E,2 !wedge!E,2 !wedge!E,2) | C,2 C,2 D,2 D,2 | G,,8 | z8 | z8 | G,3 F, E,2 D,2 | %144
 C,3 D, E,F, G,2 | A,3 G, F,2 E,2 | D,4 D,2 z2 | %147
"^_____________________________________________\nEdited by B. C. Johnston, 2016.\n   1.  Chorus in g minor, measures 24-29, ends on the first note of m. 30, after which key changes to G major. The chorus is repeated after \n\"my people doth not consider,\" mm. 46-51. Apparently the intent is to remain in g minor after the repeat of the chorus, for F# is marked\n        in several places thereafter.\n   2.  The lyrics for measures 74-81 changed from \"wounds and bruises, and putrifying sores\" to \"wounds, bruises, and ...\" to fit the music: \n   3.  Time change inferred at measure 82.\n   4.  The lyrics for measure 88 changed from \"we had been as of Sodom\" to \"we had been as Sodom\" to fit the music.\n   5.  The dissonance in m. 106 (\"oppressed\") seems intentional." (G,,A,, B,,2 C,4 | %148
 D,8) | G,,8 |] %150

